X: 35368
T: Roslin Castle
R: reel
M: 4/4
K: Dmajor
|:B|~d2 dA cA g2|~d2 de gcce|~d2 dA ~c2 ge|fded cAA:|
|:e|gccg ccge|adda ddaf|gccg ccge|fded cAA:|

